X:705
T: Mikie Duggan's
S: "Johnny O'Leary of Sliabh Luachra" (#257)
Z: B.Black
L: 1/8
M: 2/4
Q: 270
R: polka
K: D
E|FD FA|de f/g/f/e/|dB AF|E2 E>G|
FD FA|de f/g/f/e/|dB AF|D2 D> :|
e|fd Ad|fd Ad|fd/B/ AF|E2 E>d|
fd Ad|fd Ad|fd/B/ AF|D2 D> :|
